X: 18151
T: Humours Of Cullen, The
R: jig
M: 6/8
K: Eminor
E|~B,2E- EFA|{c}TB2A B^cd|AFD DFA|BdB AFD|
~B,2E- EFA|{c}TB2A B^cd|edB BAF|EFE TE2:|
B|e>fe TB2-^d|e^de efg|Tfef ~d2e|faf def|
e>fe TB2-^d|e^de fe=d|BAB dAF|EFE TE2B|
efe T(B2^d)|e^de efg|{g}Tfef ~d2e|faf def|
.g.a.g .f.e.^d|.e.f.e .=d.B.A|BdB BAF|EFE TE2||

